X: 27399
T: Model T, The
R: jig
M: 6/8
K: Eminor
|:A|Bde E2 E|Bde edB|ABd D2 D|Dfe dAF|
Bde E2 A|Bde edB|ABd BAF|BED E2:|
|:A|BAB e2 f|gbd edB|BAF d2 e|fad edB|
BAB e2 f|gbd edB|BAF dAF|EFD E2:|

